X:1
T:The Thriller!
T:The Thriller!
T:RAG.
T:MAY AUFDERHEIDE
T:Copyright 1909 by J.H. Aufderheide
T:Copyright 1909 by J.H. Aufderheide
T:Copyright 1909 by J.H. Aufderheide
C:MAY AUFDERHEIDE
Z:Copyright 1909 by J.H. Aufderheide
%%score { ( 1 3 ) | 2 }
L:1/8
Q:1/4=80
M:2/4
K:Ab
V:1 treble nm="Piano" snm="Pno."
V:3 treble 
V:2 bass 
V:1
"^Not fast." z |:!f!!ff!"_-" z/ ((c'/g/b/ a/e/c/e/)) | f=e/_e/- e/=d/e/=e/ | f=e/_e/- e/=d/e/=e/ | %4
"^Composer of   “Buzzer Rag,”\n“Dusty” and “Richmond Rag.”" f=e/_e/- e2 | z/ (c'/g/b/ a/e/c/e/) | %6
 f=e/_e/- e/[cf][c^f]/ | ([cg]/^f/[cg]/f/ g/=f/e/=d/) | e<c !arpeggio![Gce]/BE/ | %9
 z/ ((c'/g/b/ a/e/c/e/)) | f=e/_e/- e/=d/e/=e/ | f=e/_e/- e/=d/e/=e/ | f=e/_e/- e2 | A/B/c/A/ B<c | %14
 [Ae][Ad] [Bda]2 | c/A/c/e/ [Gdf][Gde] |1 A z [EGBde]2 :|2 A z z2 |: %18
!p!!mf!"_-" z ([ce]/[=B=d]/ [ce]/[Bd]/[ce]/[Bd]/ | [ce])E/!>![ce]/- [ce]/E/!>![_B_d] | %20
 z ([Ac]/=B/ [Ac]/B/[Ac]/B/ | [Ac])E/!>![Ac]/- [Ac]/E/!>![EB] | z ([ce]/=d/ [ce]/d/[ce]/=e/ | %23
 [Acf]/)e/c/[Acf]/- [Acf]/e/c/A/ | !>![Gde]2 !>![^Fce]2 | !>![Gde]4 | z [cf]/=B/ [cf]/B/[cg]/B/ | %27
 [cf]F/!>![df]/- [df]/F/!>![cf] | z [B=d]/=A/ [Bd]/A/[Bd]/A/ | [B=d]F/!>![cd]/- [cd]/F/!>![Bd] | %30
 z [B_d]/[=Ac]/ [Bd]/[Ac]/[Bd]/[Ac]/ | [Bd]E/!>!c/- c/E/!>![DEB] | [CEA]4- |1 %33
 [CEA]c/B/ A/G/F/=E/ :|2{/x-} [CEA]2 [EGBde]2 ||!ff! z/ ((c'/g/b/ a/e/c/e/)) | %36
 f=e/_e/- e/=d/e/=e/ | f=e/_e/- e/=d/e/=e/ | f=e/_e/- e2 | z/ (c'/g/b/ a/e/c/e/) | %40
 f=e/_e/- e/[cf][c^f]/ | ([cg]/^f/[cg]/f/ g/=f/e/=d/) | e<c !arpeggio![Gce]/BE/ | %43
 z/ ((c'/g/b/ a/e/c/e/)) | f=e/_e/- e/=d/e/=e/ | f=e/_e/- e/=d/e/=e/ | f=e/_e/- e2 | A/B/c/A/ B<c | %48
 [Ae][Ad] [Bda]2 | c/A/c/e/ [Gdf][Gde] |!<(! [CEA] !^![ee']!^![ff']!^![gg']!<)! |: %51
[M:2/4]!ff! [ac'e'a'][ff']/[ee']/- [ee']/[cc'][Bb]/ | [Acea]4 | %53
 [ac'e'a'][ff']/[ee']/- [ee']/[cc'][Bb]/ | [Acea]4 | [Gd]/B/c/[Gd]/- [Gd]/c/B | %56
 [Ec]!>![Gd]!>![A=d]!>![Ae] | [Ad]/B/c/[Ad]/- [Ad]/c/B | !>![Gde]!>![Gd=e]!>![Gdf]!>![Gdg] | %59
 [ac'e'a'][ff']/[ee']/- [ee']/[cc'][Bb]/ | [Acea]4 | [ac'e'a'][ff']/[ee']/- [ee']/[cc'][Bb]/ | %62
 [Acea]4 |!ff! !>![a=b=d'f'a']!>![ff']/!>![=d=d']/- [dd']/!>![=Bb]!>![Aa]/ | %64
 !>![Ff]!>![=D=d]/!>![=B,=B]/- [B,B]/!>![A,A]!>![F,F]/ | [E,E]!>![Gce]- [Gce]/B/!>![Gce] | %66
 !>![A,EA] z !>![Acea] z :| %67
V:2
 !>![E,,E,] |: !>![A,,A,][E,A,C] [E,,E,][E,A,C] | [A,,A,][E,A,C] [A,,A,][=A,,=A,] | %3
 [B,,B,][G,B,D] [B,,B,][=B,,=B,] | [C,C][E,A,C] E,[E,G,B,D] | [A,,A,][E,A,C] [E,,E,][E,A,C] | %6
 [A,,A,][E,A,C] [C,C][A,,A,] | [G,,G,][G,CE] [G,,G,][G,=B,=DF] | [C,C][G,CE] [B,,B,][G,_B,_DE] | %9
 !>![A,,A,][E,A,C] [E,,E,][E,A,C] | [A,,A,][E,A,C] [A,,A,][=A,,=A,] | %11
 [B,,B,][G,B,D] [B,,B,][=B,,=B,] | [C,C][E,A,C] E,[E,G,B,D] | A,[CE_G] _G,[CEG] | %14
 F,[A,DF] =E,[B,D] | _E,[A,CE] E,[G,B,D] |1 [A,,A,] z [B,,B,]!>![E,,E,] :|2 %17
 [A,,A,]!>![E,,E,]!>![F,,F,]!>![G,,G,] |: [A,,A,][E,A,C] [E,,E,][E,A,C] | %19
 [A,,A,][E,A,C] [E,,E,][E,B,D] | [A,,A,][E,A,C] [E,,E,][E,A,C] | [A,,A,][E,A,C] [E,,E,][E,B,D] | %22
 [A,,A,][E,A,C] [E,,E,][E,A,C] | [A,,A,][E,A,C] [C,C][_C,_C] | !>![B,,B,]2 !>![=A,,=A,]2 | %25
 !>![B,,B,]!>![E,,E,]!>![F,,F,]!>![G,,G,] | [=F,,=F,][F,C_E] [C,C][F,CE] | %27
 [F,,F,][F,CE] [C,C][F,CE] | [B,,B,][A,B,=D] [F,,F,][A,B,D] | [B,,B,][A,B,=D] [F,,F,][A,B,D] | %30
 [E,,E,][E,B,_D] [B,,B,][E,B,D] | [E,,E,][E,B,D] [B,,B,][E,B,D] | %32
 [A,,A,][F,,F,]/[E,,E,]/- [E,,E,][C,,C,] |1 [A,,,A,,]2 [E,,E,]2 :|2 [A,,A,]2 [E,,E,]!>![E,,E,] || %35
 !>![A,,A,][E,A,C] [E,,E,][E,A,C] | [A,,A,][E,A,C] [A,,A,][=A,,=A,] | %37
 [B,,B,][G,B,D] [B,,B,][=B,,=B,] | [C,C][E,A,C] E,[E,G,B,D] | [A,,A,][E,A,C] [E,,E,][E,A,C] | %40
 [A,,A,][E,A,C] [C,C][A,,A,] | [G,,G,][G,CE] [G,,G,][G,=B,=DF] | [C,C][G,CE] [B,,B,][G,_B,_D] | %43
 !>![A,,A,][E,A,C] [E,,E,][E,A,C] | [A,,A,][E,A,C] [A,,A,][=A,,=A,] | %45
 [B,,B,][G,B,D] [B,,B,][=B,,=B,] | [C,C][E,A,C] E,[E,G,B,D] | !^!A,[CE_G] !^!_G,[CEG] | %48
 !^!F,[A,DF] !^!=E,[B,D] | _E,[A,CE] E,[G,B,D] | [A,,A,]!>![E,,E,]!>![F,,F,]!>![G,,G,] |: %51
[M:2/4] [A,,A,][E,A,C] [E,,E,][E,A,C] | %52
 !>![A,,A,]!>![G,,G,]/!>![F,,F,]/- [F,,F,]/!>![=E,,=E,]/!>![_E,,_E,] | %53
 [A,,A,][E,A,C] [E,,E,][E,A,C] | %54
 !>![A,,A,]!>![G,,G,]/!>![F,,F,]/- [F,,F,]/!>![=E,,=E,]/!>![_E,,_E,] | B,,[G,B,D] E,[G,B,D] | %56
 [A,,A,]!>![B,,B,]!>![=B,,=B,]!>![C,C] | F,[A,B,=D] B,,[A,B,D] | %58
 !>![E,,E,]!>![D,,D,]!>![B,,,B,,]!>![E,,,E,,] | [A,,A,][E,A,C] [E,,E,][E,A,C] | %60
 !>![A,,A,]!>![G,,G,]/!>![F,,F,]/- [F,,F,]/!>![=E,,=E,]/!>![_E,,_E,] | %61
 [A,,A,][E,A,C] [E,,E,][E,A,C] | %62
 !>![A,,A,]!>![G,,G,]/!>![F,,F,]/- [F,,F,]/!>![=E,,=E,]/!>![_E,,_E,] | [=D,,=D,]4- | [=D,,=D,]4 | %65
 [E,,,E,,] !>![E,G,D]2 !>![E,G,D] | !>![A,,A,]!>![E,,E,]!>![A,,,A,,] z :| %67
V:3
 x |: x4 | c2 z2 | [Gd]2 z2 | c2 z/ !>![Gc]!>![GB]/ | x4 | c2 z2 | x4 | x4 | x4 | c2 z2 | %11
 [Gd]2 z2 | c2 z/ !>![Gc]!>![GB]/ | x4 | x4 | x4 |1 x4 :|2 x4 |: _E4 | x4 | E4 | x4 | A4 | x4 | %24
 x4 | x4 | F4 | x4 | F4 | x4 | E4 | x4 | x4 |1 x4 :|2 x4 || x4 | c2 z2 | [Gd]2 z2 | %38
 c2 z/ !>![Gc]!>![GB]/ | x4 | c2 z2 | x4 | x4 | x4 | c2 z2 | [Gd]2 z2 | c2 z/ !>![Gc]!>![GB]/ | %47
 x4 | x4 | x4 | x4 |:[M:2/4] x4 | x4 | x4 | x4 | x4 | x4 | x4 | x4 | x4 | x4 | x4 | x4 | x4 | x4 | %65
 x4 | x4 :| %67

